!!!COM: Anon.
!!!OCL: Francis James Child
!!!OPR: The English and Scottish Popular Ballads
!!!OVM: Vol. 1
!!!ONB: Ballad No. 43, Tune No. 1
!!!ONM: No. 43
!!!PDT: 1882
!!!YEM: Public domain.
**kern
*M4/4
{8g
=1
4g
8b
8b
4dd
8ee
8dd
=2
8dd
8cc
8a
8a
4g}
!! Second phrase:
{4dd
=3
4ee
8ee
8ee
4ee
8dd
8dd
=4
2.gg}
!! Third phrase:
{8gg
8ee
=5
8dd
8dd
8dd
8cc
4b
8g
8g
=6
8cc
8cc
8dd
8dd
4ee}
!! Fourth phrase:
{8gg
8ee
=7
4.dd
8a
4b
4a
=8
2.g}
====
*-
!!!OCY: Britain; England
!!!PPP: Boston
!!!ODT: <1882
!!!AFR: folk song
!!!AST: monophony
!!!AMT: simple quadruple
!!!SCA: Child Collection
!!!AIN: vox
!!!EEV: 1.0
!!!RDT: 1987 June
!!!YER: 1994 August 10
!!!VTS: 652652838
